vsi/zoom-out_light.svg

<svg viewBox="0 0 16 16" fill="none" xmlns="http://www.w3.org/2000/svg" height="1em" width="1em">
  <path fill-rule="evenodd" clip-rule="evenodd" d="M12.0278 6.14861C12.1234 7.56649 11.6685 8.96661 10.7577 10.0575L15.0177 14.3176L14.3178 15.0275L10.0578 10.7575C8.96686 11.6682 7.56674 12.1231 6.14885 12.0275C4.73097 11.9319 3.40461 11.2931 2.44585 10.2442C1.48709 9.19523 0.969739 7.81691 1.00164 6.39617C1.03353 4.97542 1.61212 3.62162 2.61699 2.61675C3.62187 1.61188 4.97566 1.03329 6.39641 1.00139C7.81716 0.969494 9.19548 1.48684 10.2444 2.44561C11.2934 3.40437 11.9321 4.73072 12.0278 6.14861ZM6.57781 11.0375C7.77066 11.0354 8.91402 10.5608 9.75774 9.71758L9.71782 9.7376C10.145 9.32074 10.4851 8.82316 10.7186 8.27385C10.952 7.72455 11.0741 7.13437 11.0778 6.53752C11.0778 5.64751 10.8139 4.77755 10.3194 4.03752C9.82492 3.2975 9.12212 2.72065 8.29985 2.38005C7.47759 2.03946 6.57279 1.95032 5.69988 2.12395C4.82696 2.29758 4.02514 2.72618 3.3958 3.35552C2.76646 3.98485 2.33787 4.78668 2.16423 5.6596C1.9906 6.53251 2.07974 7.4373 2.42034 8.25957C2.76093 9.08184 3.33766 9.78464 4.07769 10.2791C4.81771 10.7736 5.68779 11.0375 6.57781 11.0375ZM4.03772 6.0575H9.03772V7.0575H4.03772V6.0575Z" fill="#424242"/>
</svg>

<svg viewBox="0 0 16 16" fill="none" xmlns="http://www.w3.org/2000/svg" height="1em" width="1em">
  <path fill-rule="evenodd" clip-rule="evenodd" d="M12.028 6.149a5.52 5.52 0 0 1-1.27 3.908l4.26 4.26-.7.71-4.26-4.27a5.52 5.52 0 1 1 1.97-4.608Zm-5.45 4.888a4.51 4.51 0 0 0 3.18-1.32l-.04.02a4.51 4.51 0 0 0 1.36-3.2 4.5 4.5 0 1 0-4.5 4.5Zm-2.54-4.98h5v1h-5v-1Z" fill="#424242"/>
</svg>
